X: 1
T: Reggie's Cigar
C: Ralph Page
R: jig
Z: 2012 John Chambers <jc:trillian.mit.edu>
B: Northern Junket, v.9, #3, April 1968
N: Corrected length of A note in bar 11.
M: 6/8
L: 1/8
K: G
D |\
GFG BAG | dBd g3 | d2e dcB | ABG FED |\
GFG BAG | dBd g3 | d2e dcB | AGF G2 :|
|: d |\
g3 f3 | efg dBG | G2A Bdc | BAG A2d |\
g3 f3 | efg dBG | cde dcB | AGF G2 :|

%%sep 1 1 500

